X:2319
T:Untitled 
C:Traditional
O:Isle of Man
Z:Collected by Mona Douglas 
B:Kiaull Vannin #319 
M:4/4 
L:1/4
K:G 
B B/B/ B/G/ B|B3/2B/ B2|A A/A/ A/E/ B|B3/2B/ B2|
B B/B/ B3/2B/|A3/2A E2|c2 c/A/ c3/2/c/|c3/2c B3/2B|BA E3/2F/|G4||

